X:4774
T:El Valse (XA 04)
R:Valse
C:Tradicional
S:Msica Tradicional Asturiana, (C) Tello & Tito. Asturies, 2001.
S:http://pagina.de/MusTradAst <telloytito@asturies.org>
A:Asturies
Z:Mtodu de Xuacu Amieva 04
M:3/8
L:1/8
Q:3/8=66
K:C
|: CDE|F2 E|EFD|E3|CDC|D C/D/ E|D E/F/E/D/|C2 C :|
|: CGG|E C/D/ E|FED|E2 E|C GG|E C/D/ E|FED|[1 C2 C :|[2 C3|"fin"
|: GAB|c2 B|BcA|B3|GAG|A G/A/ B|A B/c/B/A/|G2 G :|
